icons/breezeDark/actions/22/path-union.svg

<svg height="22" viewBox="0 0 22 22" width="22" xmlns="http://www.w3.org/2000/svg"><g fill="#c0c0c0"><path d="m13.5 3a5.5 5.5 0 0 0 -5.4765625 5h-5.0234375v11h11v-5.023438a5.5 5.5 0 0 0 5-5.476562 5.5 5.5 0 0 0 -5.5-5.5zm0 1a4.5 4.5 0 0 1 4.5 4.5 4.5 4.5 0 0 1 -4 4.472656 4.5 4.5 0 0 1 -.033203.003906 4.5 4.5 0 0 1 -.144531.011719 4.5 4.5 0 0 1 -.033204.001953 4.5 4.5 0 0 1 -.011718 0 4.5 4.5 0 0 1 -.166016.007813 4.5 4.5 0 0 1 -.111328.001953 4.5 4.5 0 0 1 -.5-.027344v1.003906 4.023438h-9v-9h4.0234375 1.0039063a4.5 4.5 0 0 1 -.015625-.1777344 4.5 4.5 0 0 1 -.0117188-.3222656 4.5 4.5 0 0 1 .0039062-.1777344 4.5 4.5 0 0 1 .0234376-.3222656 4.5 4.5 0 0 1 4.4726562-4zm-3.5 4v1h1v-1zm2 0v1h1v1h1v-2zm-2.6992188 2.115234-.9335937.359375a5.5 5.5 0 0 0 .6972656 1.277344l.8085938-.591797a4.5 4.5 0 0 1 -.5722657-1.044922zm3.6992188.884766v1h1v-1zm-2.160156 1.126953-.591797.808594a5.5 5.5 0 0 0 1.277344.697265l.359375-.933593a4.5 4.5 0 0 1 -1.044922-.572266z"/><path d="m13.5 4a4.5 4.5 0 0 0 -4.5 4.5 4.5 4.5 0 0 0 .027344.5h-5.027344v9h9v-5.027344a4.5 4.5 0 0 0 .5.027344 4.5 4.5 0 0 0 4.5-4.5 4.5 4.5 0 0 0 -4.5-4.5z" fill-opacity=".501961"/></g></svg>

<?xml version="1.0" encoding="UTF-8" standalone="no"?>
<svg
   xmlns:dc="http://purl.org/dc/elements/1.1/"
   xmlns:cc="http://creativecommons.org/ns#"
   xmlns:rdf="http://www.w3.org/1999/02/22-rdf-syntax-ns#"
   xmlns:svg="http://www.w3.org/2000/svg"
   xmlns="http://www.w3.org/2000/svg"
   xmlns:sodipodi="http://sodipodi.sourceforge.net/DTD/sodipodi-0.dtd"
   xmlns:inkscape="http://www.inkscape.org/namespaces/inkscape"
   viewBox="0 0 22 22"
   version="1.1"
   id="svg8"
   sodipodi:docname="path-union.svg"
   inkscape:version="1.0.2 (e86c870879, 2021-01-15, custom)"
   width="22"
   height="22">
  <metadata
     id="metadata12">
    <rdf:RDF>
      <cc:Work
         rdf:about="">
        <dc:format>image/svg+xml</dc:format>
        <dc:type
           rdf:resource="http://purl.org/dc/dcmitype/StillImage" />
        <dc:title></dc:title>
      </cc:Work>
    </rdf:RDF>
  </metadata>
  <sodipodi:namedview
     pagecolor="#ffffff"
     bordercolor="#666666"
     borderopacity="1"
     objecttolerance="10"
     gridtolerance="10"
     guidetolerance="10"
     inkscape:pageopacity="0"
     inkscape:pageshadow="2"
     inkscape:window-width="1873"
     inkscape:window-height="1048"
     id="namedview10"
     showgrid="true"
     inkscape:zoom="29.5"
     inkscape:cx="12.789702"
     inkscape:cy="9.5827675"
     inkscape:window-x="1867"
     inkscape:window-y="1080"
     inkscape:window-maximized="0"
     inkscape:current-layer="svg8"
     inkscape:document-rotation="0">
    <inkscape:grid
       type="xygrid"
       id="grid874"
       empspacing="4" />
  </sodipodi:namedview>
  <defs
     id="defs3051">
    <style
       type="text/css"
       id="current-color-scheme">
      .ColorScheme-Text {
        color:#c0c0c0;
      }
      </style>
  </defs>
  <path
     id="rect934"
     style="fill:#c0c0c0;fill-opacity:1;stroke:none;stroke-width:0.989"
     d="M 13.5 3 A 5.5 5.5 0 0 0 8.0234375 8 L 3 8 L 3 19 L 14 19 L 14 13.976562 A 5.5 5.5 0 0 0 19 8.5 A 5.5 5.5 0 0 0 13.5 3 z M 13.5 4 A 4.5 4.5 0 0 1 18 8.5 A 4.5 4.5 0 0 1 14 12.972656 A 4.5 4.5 0 0 1 13.966797 12.976562 A 4.5 4.5 0 0 1 13.822266 12.988281 A 4.5 4.5 0 0 1 13.789062 12.990234 A 4.5 4.5 0 0 1 13.777344 12.990234 A 4.5 4.5 0 0 1 13.611328 12.998047 A 4.5 4.5 0 0 1 13.5 13 A 4.5 4.5 0 0 1 13 12.972656 L 13 13.976562 L 13 18 L 4 18 L 4 9 L 8.0234375 9 L 9.0273438 9 A 4.5 4.5 0 0 1 9.0117188 8.8222656 A 4.5 4.5 0 0 1 9 8.5 A 4.5 4.5 0 0 1 9.0039062 8.3222656 A 4.5 4.5 0 0 1 9.0273438 8 A 4.5 4.5 0 0 1 13.5 4 z M 10 8 L 10 9 L 11 9 L 11 8 L 10 8 z M 12 8 L 12 9 L 13 9 L 13 10 L 14 10 L 14 8 L 12 8 z M 9.3007812 10.115234 L 8.3671875 10.474609 A 5.5 5.5 0 0 0 9.0644531 11.751953 L 9.8730469 11.160156 A 4.5 4.5 0 0 1 9.3007812 10.115234 z M 13 11 L 13 12 L 14 12 L 14 11 L 13 11 z M 10.839844 12.126953 L 10.248047 12.935547 A 5.5 5.5 0 0 0 11.525391 13.632812 L 11.884766 12.699219 A 4.5 4.5 0 0 1 10.839844 12.126953 z " />
  <path
     id="rect950"
     style="fill:#c0c0c0;fill-opacity:0.501961;stroke:none;stroke-width:0.989"
     d="M 13.5,4 A 4.5,4.5 0 0 0 9,8.5 4.5,4.5 0 0 0 9.027344,9 H 4 v 9 h 9 V 12.972656 A 4.5,4.5 0 0 0 13.5,13 4.5,4.5 0 0 0 18,8.5 4.5,4.5 0 0 0 13.5,4 Z" />
</svg>
